X:8
T:The Mouse In the Cupboard    Jig    Allan's #08
C:Trad/Anon   (aka  Merry Old Woman)
N:See also O'Neill's #799 & 800
B:Allan's Irish Fiddler (pub. Mozart Allen,  Glascow) date unknown
Z:FROM ALLAN'S TO NOTEWORTHY, FROM NOTEWORTHY TO ABC, MIDI AND .TXT BY VINCE
BRENNAN Dec. 2002 (HTTP://WWW.SOSYOURMOM.COM)
I:abc2nwc
M:6/8
L:1/8
K:D
(G/2A/2)|BcB AGE|DGG FGA|BAB cBc|def gdc|
BcBAGE|DGG FGA|Bcd cAF|AGF G2:|
|:A|BAB cBc|dgg fdc|def gfg|abg fdd|
dggb2g|a2g fdc|Bcd cAF|AGF G2:|
